X:251
%%topmargin 3cm
U:~=!turn!
T:Bog an Lochan
T:The Bog, or Small Lake
T:Athole Cummers
C:
O:Scotland
B:Keith Norman MacDonald : "The Skye collection of the best reels & strathspeys extant" : 1887
Z:Ralph Palmer
R:Stathspey
M:C
L:1/8
K:D mixolydian
F |: E/E/E ~E2 E>FB>F | E/E/E ~E2 {/G}(F<D)A>F | E/E/E ~E2 D>FB>A | [1 (B<{/c}d)A>d {/G}F>DA>F :|
[2 B<dA<d (F<D)D>d |: B<ET(B>A) B<EE>e | B<ET(B>A) {/G}(F<D)D>d | B<ETB>A {/c}d>eT(f>e) | [1 {/^c}(d/^c/).B/.A/ {/c}d>A {/G}(F<D)D>d :|
[2 {/^c}(d/^c/).B/.A/ {/c}d>A {/G}Ff || e/e/e {/f}e2 (e>f)(b>f) | e/e/e {/f}e2 f>da>f | e/e/e {/f}e2 (e>f)b>f | {/f}(g<e)b>e {/^c}(df/g/) a>f |
{/f}(g>e)(b>e) {/f}(g<e)(b>e) | {/f}(g<e)(b>e) {/^c}(df/g/) a<f | {/f}(g<e)(b<e) {/^c}d>eT(f>e) | {/^c}(d/^c/).B/.A/ {/c}d>A {/G}(F<D)D>{/^c}d ||
